(Exported by FreeCAD)
(Post Processor: grbl_post)
(Output Time:2021-05-24 19:52:47.773017)
(begin preamble)
G17 G90
G21
(begin operation: Controller 1)
(Path: Controller 1)
(Controller 1)
(begin toolchange)
; M6 T2
M3 S1000.0000
(finish operation: Controller 1)
(begin operation: Pocket_3D)
(Path: Pocket_3D)
(Pocket_3D)
G0 Z5.0000
G0 X16.3016 Y56.8048
G0 Z3.0000
G1 X16.3016 Y56.8048 Z-0.4000 F120.00
G2 X12.6544 Y41.9891 Z-0.4000 I-6.3028 J-6.3052 F2400.00
G3 X12.6531 Y39.0145 Z-0.4000 I0.5472 J-1.4876 F2400.00
G2 X12.6531 Y21.9887 Z-0.4000 I-2.6578 J-8.5129 F2400.00
G3 X12.6544 Y19.0140 Z-0.4000 I0.5484 J-1.4871 F2400.00
G2 X18.6628 Y12.6011 Z-0.4000 I-2.6653 J-8.5183 F2400.00
G2 X1.4876 Y7.8472 Z-0.4000 I-8.6647 J-2.0984 F2400.00
G3 X-1.4876 Y7.8472 Z-0.4000 I-1.4876 J-0.5472 F2400.00
G2 X-10.1606 Y1.5895 Z-0.4000 I-8.5152 J2.6627 F2400.00
G2 X-12.6544 Y19.0140 Z-0.4000 I0.1621 J8.9139 F2400.00
G3 X-12.6531 Y21.9887 Z-0.4000 I-0.5472 J1.4876 F2400.00
G2 X-12.6531 Y39.0145 Z-0.4000 I2.6578 J8.5129 F2400.00
G3 X-12.6544 Y41.9891 Z-0.4000 I-0.5484 J1.4871 F2400.00
G2 X-18.6628 Y48.4020 Z-0.4000 I2.6653 J8.5183 F2400.00
G2 X-1.4876 Y53.1559 Z-0.4000 I8.6647 J2.0984 F2400.00
G3 X1.4876 Y53.1559 Z-0.4000 I1.4876 J0.5472 F2400.00
G2 X7.9005 Y59.1643 Z-0.4000 I8.5183 J-2.6653 F2400.00
G2 X16.3016 Y56.8048 Z-0.4000 I2.0984 J-8.6647 F2400.00
G0 X16.3016 Y56.8048 Z5.0000
G0 X12.5721 Y59.0301 Z5.0000
G0 X12.5721 Y59.0301 Z2.6000
G1 X12.5721 Y59.0301 Z-0.4000 F120.00
G1 X12.5721 Y41.9480 Z-0.4000 F2400.00
G3 X14.1571 Y42.6188 Z-0.4000 I-3.4512 J10.3637 F2400.00
G1 X14.1571 Y58.3772 Z-0.4000 F2400.00
G2 X15.7421 Y57.3191 Z-0.4000 I-3.3228 J-6.6935 F2400.00
G1 X15.7421 Y43.6943 Z-0.4000 F2400.00
G3 X17.3271 Y45.4377 Z-0.4000 I-5.1653 J6.2881 F2400.00
G1 X17.3271 Y55.5718 Z-0.4000 F2400.00
G2 X18.9121 Y50.6621 Z-0.4000 I-7.2828 J-5.0618 F2400.00
G0 X18.9121 Y50.6621 Z5.0000
G0 X12.5721 Y39.0550 Z5.0000
G0 X12.5721 Y39.0550 Z2.6000
G1 X12.5721 Y39.0550 Z-0.4000 F120.00
G1 X12.5721 Y21.9481 Z-0.4000 F2400.00
G3 X14.1571 Y22.6175 Z-0.4000 I-3.5071 J10.5159 F2400.00
G1 X14.1571 Y38.3857 Z-0.4000 F2400.00
G2 X15.7421 Y37.3081 Z-0.4000 I-3.8409 J-7.3539 F2400.00
G1 X15.7421 Y23.6951 Z-0.4000 F2400.00
G3 X17.3271 Y25.4404 Z-0.4000 I-5.1043 J6.2277 F2400.00
G1 X17.3271 Y35.5627 Z-0.4000 F2400.00
G2 X17.3271 Y25.4404 Z-0.4000 I-7.2800 J-5.0611 F2400.00
G0 X17.3271 Y25.4404 Z5.0000
G0 X8.2334 Y21.1747 Z5.0000
G0 X8.2334 Y21.1747 Z2.6000
G1 X8.2334 Y21.1747 Z-0.4000 F120.00
G3 X7.3465 Y21.9888 Z-0.4000 I-1.4350 J-0.6731 F2400.00
G2 X1.4872 Y27.8481 Z-0.4000 I2.6736 J8.5329 F2400.00
G3 X-1.4872 Y27.8481 Z-0.4000 I-1.4872 J-0.5481 F2400.00
G2 X-7.3465 Y21.9888 Z-0.4000 I-8.5329 J2.6736 F2400.00
G3 X-7.3465 Y19.0143 Z-0.4000 I0.5481 J-1.4872 F2400.00
G2 X-1.4872 Y13.1551 Z-0.4000 I-2.6736 J-8.5329 F2400.00
G3 X0.1751 Y12.1278 Z-0.4000 I1.4872 J0.5481 F2400.00
G3 X1.4872 Y13.1551 Z-0.4000 I-0.1751 J1.5753 F2400.00
G2 X7.3465 Y19.0143 Z-0.4000 I8.5329 J-2.6736 F2400.00
G3 X8.2334 Y21.1747 Z-0.4000 I-0.5481 J1.4872 F2400.00
G0 X8.2334 Y21.1747 Z5.0000
G0 X7.8171 Y19.2996 Z5.0000
G0 X7.8171 Y19.2996 Z2.6000
G1 X7.8171 Y19.2996 Z-0.4000 F120.00
G1 X7.8171 Y1.8628 Z-0.4000 F2400.00
G2 X6.2321 Y2.4315 Z-0.4000 I1.4647 J6.5753 F2400.00
G1 X6.2321 Y18.5704 Z-0.4000 F2400.00
G3 X4.6471 Y17.6241 Z-0.4000 I3.2526 J-7.2485 F2400.00
G1 X4.6471 Y3.3814 Z-0.4000 F2400.00
G2 X3.0621 Y4.9165 Z-0.4000 I4.8271 J6.5698 F2400.00
G1 X3.0621 Y16.0876 Z-0.4000 F2400.00
G3 X1.4771 Y13.1348 Z-0.4000 I6.9451 J-5.6299 F2400.00
G1 X1.4771 Y7.8681 Z-0.4000 F2400.00
G3 X-0.1079 Y8.8753 Z-0.4000 I-1.4630 J-0.5515 F2400.00
G1 X-0.1079 Y12.1278 Z-0.4000 F2400.00
G2 X-1.4872 Y13.1551 Z-0.4000 I0.0903 J1.5609 F2400.00
G1 X-1.6929 Y13.7131 Z-0.4000 F2400.00
G1 X-1.6929 Y7.2890 Z-0.4000 F2400.00
G2 X-3.2779 Y4.6570 Z-0.4000 I-7.9567 J2.9983 F2400.00
G1 X-3.2779 Y16.3443 Z-0.4000 F2400.00
G3 X-4.8629 Y17.7757 Z-0.4000 I-6.0798 J-5.1389 F2400.00
G1 X-4.8629 Y3.2269 Z-0.4000 F2400.00
G2 X-6.4479 Y2.3270 Z-0.4000 I-4.8449 J6.6877 F2400.00
G1 X-6.4479 Y18.6719 Z-0.4000 F2400.00
G2 X-7.6597 Y19.1710 Z-0.4000 I1.8902 J6.3098 F2400.00
G2 X-8.0329 Y19.5229 Z-0.4000 I0.5951 J1.0049 F2400.00
G1 X-8.0329 Y1.8126 Z-0.4000 F2400.00
G0 X-8.0329 Y1.8126 Z5.0000
G0 X-17.5429 Y15.2408 Z5.0000
G0 X-17.5429 Y15.2408 Z2.6000
G1 X-17.5429 Y15.2408 Z-0.4000 F120.00
G3 X-17.5429 Y5.7663 Z-0.4000 I7.5008 J-4.7373 F2400.00
G1 X-17.5429 Y15.2408 Z-0.4000 F2400.00
G2 X-15.9579 Y17.1295 Z-0.4000 I7.2342 J-4.4617 F2400.00
G1 X-15.9579 Y3.8820 Z-0.4000 F2400.00
G3 X-14.3729 Y2.7402 Z-0.4000 I5.4208 J5.8538 F2400.00
G1 X-14.3729 Y18.2600 Z-0.4000 F2400.00
G2 X-12.7879 Y18.9649 Z-0.4000 I3.5819 J-5.9193 F2400.00
G1 X-12.7879 Y2.0437 Z-0.4000 F2400.00
G3 X-11.2029 Y1.6772 Z-0.4000 I2.3387 J6.5036 F2400.00
G1 X-11.2029 Y59.3259 Z-0.4000 F2400.00
G2 X-9.6179 Y59.4003 Z-0.4000 I1.0990 J-6.4917 F2400.00
G1 X-9.6179 Y1.6028 Z-0.4000 F2400.00
G3 X-8.0329 Y1.8126 Z-0.4000 I-0.0510 J6.4768 F2400.00
G1 X-8.0329 Y19.5229 Z-0.4000 F2400.00
G2 X-8.0329 Y21.4802 Z-0.4000 I1.1896 J0.9787 F2400.00
G1 X-8.0329 Y39.5229 Z-0.4000 F2400.00
G2 X-8.0329 Y41.4802 Z-0.4000 I1.1896 J0.9787 F2400.00
G1 X-8.0329 Y59.1905 Z-0.4000 F2400.00
G2 X-6.4479 Y58.6761 Z-0.4000 I-1.7787 J-8.1798 F2400.00
G1 X-6.4479 Y42.3313 Z-0.4000 F2400.00
G3 X-4.8629 Y43.2274 Z-0.4000 I-3.0419 J7.2297 F2400.00
G1 X-4.8629 Y57.7762 Z-0.4000 F2400.00
G2 X-3.2779 Y56.3462 Z-0.4000 I-4.5525 J-6.6391 F2400.00
G1 X-3.2779 Y44.6588 Z-0.4000 F2400.00
G3 X-1.6929 Y47.2900 Z-0.4000 I-6.3249 J5.6031 F2400.00
G1 X-1.6929 Y53.7142 Z-0.4000 F2400.00
G1 X-1.4876 Y53.1559 Z-0.4000 F2400.00
G3 X-0.1079 Y52.1278 Z-0.4000 I1.4699 J0.5328 F2400.00
G1 X-0.1079 Y48.8753 Z-0.4000 F2400.00
G2 X1.4771 Y47.8683 Z-0.4000 I0.1219 J-1.5590 F2400.00
G1 X1.4771 Y53.1350 Z-0.4000 F2400.00
G2 X3.0621 Y56.0866 Z-0.4000 I8.5187 J-2.6732 F2400.00
G1 X3.0621 Y44.9156 Z-0.4000 F2400.00
G3 X4.6471 Y43.3790 Z-0.4000 I6.5236 J5.1436 F2400.00
G1 X4.6471 Y57.6217 Z-0.4000 F2400.00
G2 X6.2321 Y58.5716 Z-0.4000 I4.7538 J-6.1347 F2400.00
G1 X6.2321 Y42.4327 Z-0.4000 F2400.00
G3 X7.3465 Y41.9888 Z-0.4000 I3.1180 J6.2062 F2400.00
G2 X7.8171 Y41.7035 Z-0.4000 I-0.3984 J-1.1880 F2400.00
G1 X7.8171 Y59.1403 Z-0.4000 F2400.00
G2 X9.4021 Y59.3950 Z-0.4000 I2.1415 J-8.2683 F2400.00
G1 X9.4021 Y1.6081 Z-0.4000 F2400.00
G3 X10.9871 Y1.6455 Z-0.4000 I0.5906 J8.5763 F2400.00
G1 X10.9871 Y59.3576 Z-0.4000 F2400.00
G2 X12.5721 Y59.0301 Z-0.4000 I-0.8256 J-7.9938 F2400.00
G1 X12.5721 Y41.9480 Z-0.4000 F2400.00
G3 X12.5721 Y39.0550 Z-0.4000 I0.6169 J-1.4465 F2400.00
G1 X12.5721 Y21.9481 Z-0.4000 F2400.00
G3 X12.5721 Y19.0551 Z-0.4000 I0.6170 J-1.4465 F2400.00
G1 X12.5721 Y1.9731 Z-0.4000 F2400.00
G3 X14.1571 Y2.6259 Z-0.4000 I-2.0815 J7.3039 F2400.00
G1 X14.1571 Y18.3844 Z-0.4000 F2400.00
G2 X15.7421 Y17.3089 Z-0.4000 I-3.7944 J-7.2977 F2400.00
G1 X15.7421 Y3.6840 Z-0.4000 F2400.00
G3 X17.3271 Y5.4313 Z-0.4000 I-5.6481 J6.7162 F2400.00
G1 X17.3271 Y15.5654 Z-0.4000 F2400.00
G2 X18.9121 Y10.3410 Z-0.4000 I-7.2490 J-5.0519 F2400.00
G0 X18.9121 Y10.3410 Z5.0000
G0 X0.9973 Y32.4712 Z5.0000
G0 X0.9973 Y32.4712 Z2.6000
G1 X0.9973 Y32.4712 Z-0.4000 F120.00
G3 X1.4872 Y33.1551 Z-0.4000 I-0.9973 J1.2319 F2400.00
G2 X7.3465 Y39.0143 Z-0.4000 I8.5329 J-2.6736 F2400.00
G3 X7.3465 Y41.9888 Z-0.4000 I-0.5481 J1.4872 F2400.00
G2 X1.4872 Y47.8481 Z-0.4000 I2.6736 J8.5329 F2400.00
G3 X-1.4872 Y47.8481 Z-0.4000 I-1.4872 J-0.5481 F2400.00
G2 X-7.3465 Y41.9888 Z-0.4000 I-8.5329 J2.6736 F2400.00
G3 X-7.3465 Y39.0143 Z-0.4000 I0.5481 J-1.4872 F2400.00
G2 X-1.4872 Y33.1551 Z-0.4000 I-2.6736 J-8.5329 F2400.00
G3 X0.1751 Y32.1278 Z-0.4000 I1.4872 J0.5481 F2400.00
G3 X0.9973 Y32.4712 Z-0.4000 I-0.1751 J1.5753 F2400.00
G0 X0.9973 Y32.4712 Z5.0000
G0 X7.8171 Y39.2996 Z5.0000
G0 X7.8171 Y39.2996 Z2.6000
G1 X7.8171 Y39.2996 Z-0.4000 F120.00
G1 X7.8171 Y21.7035 Z-0.4000 F2400.00
G3 X7.3465 Y21.9888 Z-0.4000 I-0.8690 J-0.9027 F2400.00
G2 X6.2321 Y22.4327 Z-0.4000 I2.0036 J6.6502 F2400.00
G1 X6.2321 Y38.5704 Z-0.4000 F2400.00
G3 X4.6471 Y37.6241 Z-0.4000 I3.2526 J-7.2485 F2400.00
G1 X4.6471 Y23.3790 Z-0.4000 F2400.00
G2 X3.0621 Y24.9156 Z-0.4000 I4.9386 J6.6802 F2400.00
G1 X3.0621 Y36.0876 Z-0.4000 F2400.00
G3 X1.4771 Y33.1348 Z-0.4000 I6.9451 J-5.6299 F2400.00
G1 X1.4771 Y27.8683 Z-0.4000 F2400.00
G3 X-0.1079 Y28.8753 Z-0.4000 I-1.4631 J-0.5519 F2400.00
G1 X-0.1079 Y32.1278 Z-0.4000 F2400.00
G2 X-1.4872 Y33.1551 Z-0.4000 I0.0903 J1.5609 F2400.00
G1 X-1.6929 Y33.7131 Z-0.4000 F2400.00
G1 X-1.6929 Y27.2900 Z-0.4000 F2400.00
G2 X-3.2779 Y24.6588 Z-0.4000 I-7.9099 J2.9719 F2400.00
G1 X-3.2779 Y36.3443 Z-0.4000 F2400.00
G3 X-4.8629 Y37.7757 Z-0.4000 I-6.0798 J-5.1389 F2400.00
G1 X-4.8629 Y23.2274 Z-0.4000 F2400.00
G2 X-6.4479 Y22.3313 Z-0.4000 I-4.6268 J6.3336 F2400.00
G1 X-6.4479 Y38.6719 Z-0.4000 F2400.00
G2 X-7.6597 Y39.1710 Z-0.4000 I1.8902 J6.3097 F2400.00
G2 X-8.0329 Y39.5229 Z-0.4000 I0.5951 J1.0049 F2400.00
G1 X-8.0329 Y21.4802 Z-0.4000 F2400.00
G0 X-8.0329 Y21.4802 Z5.0000
G0 X-12.7879 Y22.0384 Z5.0000
G0 X-12.7879 Y22.0384 Z2.6000
G1 X-12.7879 Y22.0384 Z-0.4000 F120.00
G1 X-12.7879 Y38.9648 Z-0.4000 F2400.00
G3 X-14.3729 Y38.2600 Z-0.4000 I1.9402 J-6.4983 F2400.00
G1 X-14.3729 Y22.7431 Z-0.4000 F2400.00
G2 X-15.9579 Y23.8772 Z-0.4000 I3.8494 J7.0542 F2400.00
G1 X-15.9579 Y37.1259 Z-0.4000 F2400.00
G3 X-17.5429 Y35.2483 Z-0.4000 I5.7556 J-6.4665 F2400.00
G3 X-17.5429 Y25.7548 Z-0.4000 I7.5342 J-4.7468 F2400.00
G1 X-17.5429 Y35.2483 Z-0.4000 F2400.00
G0 X-17.5429 Y35.2483 Z5.0000
G0 X-12.7879 Y42.0382 Z5.0000
G0 X-12.7879 Y42.0382 Z2.6000
G1 X-12.7879 Y42.0382 Z-0.4000 F120.00
G1 X-12.7879 Y58.9594 Z-0.4000 F2400.00
G3 X-14.3729 Y58.2630 Z-0.4000 I2.2817 J-7.3446 F2400.00
G1 X-14.3729 Y42.7432 Z-0.4000 F2400.00
G2 X-15.9579 Y43.8736 Z-0.4000 I3.9873 J7.2669 F2400.00
G1 X-15.9579 Y57.1211 Z-0.4000 F2400.00
G3 X-17.5429 Y55.2368 Z-0.4000 I5.4024 J-6.1531 F2400.00
G3 X-17.5429 Y45.7623 Z-0.4000 I7.5008 J-4.7373 F2400.00
G1 X-17.5429 Y55.2368 Z-0.4000 F2400.00
G1 X-17.5429 Y55.2368 Z-0.8000 F120.00
G1 X-17.5429 Y45.7623 Z-0.8000 F2400.00
G2 X-17.5429 Y55.2368 Z-0.8000 I7.5008 J4.7373 F2400.00
G2 X-15.9579 Y57.1211 Z-0.8000 I6.9874 J-4.2688 F2400.00
G1 X-15.9579 Y43.8736 Z-0.8000 F2400.00
G3 X-14.3729 Y42.7432 Z-0.8000 I5.5723 J6.1365 F2400.00
G1 X-14.3729 Y58.2630 Z-0.8000 F2400.00
G2 X-12.7879 Y58.9594 Z-0.8000 I3.8667 J-6.6481 F2400.00
G1 X-12.7879 Y42.0382 Z-0.8000 F2400.00
G0 X-12.7879 Y42.0382 Z5.0000
G0 X-12.7897 Y42.0327 Z5.0000
G0 X-12.7897 Y42.0327 Z2.2000
G1 X-12.7897 Y42.0327 Z-0.8000 F120.00
G2 X-18.6628 Y48.4020 Z-0.8000 I2.8007 J8.4748 F2400.00
G2 X-1.4876 Y53.1559 Z-0.8000 I8.6647 J2.0984 F2400.00
G3 X1.4876 Y53.1559 Z-0.8000 I1.4876 J0.5472 F2400.00
G2 X7.9005 Y59.1643 Z-0.8000 I8.5183 J-2.6653 F2400.00
G2 X12.6544 Y41.9891 Z-0.8000 I2.0984 J-8.6647 F2400.00
G3 X12.6531 Y39.0145 Z-0.8000 I0.5472 J-1.4876 F2400.00
G2 X12.6531 Y21.9887 Z-0.8000 I-2.6578 J-8.5129 F2400.00
G3 X12.6544 Y19.0140 Z-0.8000 I0.5484 J-1.4871 F2400.00
G2 X18.6628 Y12.6011 Z-0.8000 I-2.6653 J-8.5183 F2400.00
G2 X1.4876 Y7.8472 Z-0.8000 I-8.6647 J-2.0984 F2400.00
G3 X-1.4876 Y7.8472 Z-0.8000 I-1.4876 J-0.5472 F2400.00
G2 X-10.1606 Y1.5895 Z-0.8000 I-8.5152 J2.6627 F2400.00
G2 X-12.6544 Y19.0140 Z-0.8000 I0.1621 J8.9139 F2400.00
G3 X-12.6531 Y21.9887 Z-0.8000 I-0.5472 J1.4876 F2400.00
G2 X-12.6531 Y39.0145 Z-0.8000 I2.6578 J8.5129 F2400.00
G3 X-12.6544 Y41.9891 Z-0.8000 I-0.5484 J1.4871 F2400.00
G2 X-12.7897 Y42.0327 Z-0.8000 I2.6653 J8.5183 F2400.00
G0 X-12.7897 Y42.0327 Z5.0000
G0 X-8.3341 Y40.8940 Z5.0000
G0 X-8.3341 Y40.8940 Z2.2000
G1 X-8.3341 Y40.8940 Z-0.8000 F120.00
G3 X-7.3465 Y39.0143 Z-0.8000 I1.5356 J-0.3924 F2400.00
G2 X-1.4872 Y33.1551 Z-0.8000 I-2.6736 J-8.5329 F2400.00
G3 X0.1751 Y32.1278 Z-0.8000 I1.4872 J0.5481 F2400.00
G3 X1.4872 Y33.1551 Z-0.8000 I-0.1751 J1.5753 F2400.00
G2 X7.3465 Y39.0143 Z-0.8000 I8.5329 J-2.6736 F2400.00
G3 X7.3465 Y41.9888 Z-0.8000 I-0.5481 J1.4872 F2400.00
G2 X1.4872 Y47.8481 Z-0.8000 I2.6736 J8.5329 F2400.00
G3 X-1.4872 Y47.8481 Z-0.8000 I-1.4872 J-0.5481 F2400.00
G2 X-7.3465 Y41.9888 Z-0.8000 I-8.5329 J2.6736 F2400.00
G3 X-8.3341 Y40.8940 Z-0.8000 I0.5481 J-1.4872 F2400.00
G0 X-8.3341 Y40.8940 Z5.0000
G0 X-17.5429 Y35.2483 Z5.0000
G0 X-17.5429 Y35.2483 Z2.2000
G1 X-17.5429 Y35.2483 Z-0.8000 F120.00
G1 X-17.5429 Y25.7548 Z-0.8000 F2400.00
G2 X-17.5429 Y35.2483 Z-0.8000 I7.5342 J4.7468 F2400.00
G2 X-15.9579 Y37.1259 Z-0.8000 I7.3406 J-4.5890 F2400.00
G1 X-15.9579 Y23.8772 Z-0.8000 F2400.00
G3 X-14.3729 Y22.7431 Z-0.8000 I5.4344 J5.9201 F2400.00
G1 X-14.3729 Y38.2600 Z-0.8000 F2400.00
G2 X-12.7879 Y38.9648 Z-0.8000 I3.5252 J-5.7935 F2400.00
G1 X-12.7879 Y22.0384 Z-0.8000 F2400.00
G0 X-12.7879 Y22.0384 Z5.0000
G0 X-8.3337 Y20.8955 Z5.0000
G0 X-8.3337 Y20.8955 Z2.2000
G1 X-8.3337 Y20.8955 Z-0.8000 F120.00
G3 X-7.3465 Y19.0143 Z-0.8000 I1.5353 J-0.3939 F2400.00
G2 X-1.4872 Y13.1551 Z-0.8000 I-2.6736 J-8.5329 F2400.00
G3 X0.1751 Y12.1278 Z-0.8000 I1.4872 J0.5481 F2400.00
G3 X1.4872 Y13.1551 Z-0.8000 I-0.1751 J1.5753 F2400.00
G2 X7.3465 Y19.0143 Z-0.8000 I8.5329 J-2.6736 F2400.00
G3 X7.3465 Y21.9888 Z-0.8000 I-0.5481 J1.4872 F2400.00
G2 X1.4872 Y27.8481 Z-0.8000 I2.6736 J8.5329 F2400.00
G3 X-1.4872 Y27.8481 Z-0.8000 I-1.4872 J-0.5481 F2400.00
G2 X-7.3465 Y21.9888 Z-0.8000 I-8.5329 J2.6736 F2400.00
G3 X-8.3337 Y20.8955 Z-0.8000 I0.5481 J-1.4872 F2400.00
G0 X-8.3337 Y20.8955 Z5.0000
G0 X-8.0329 Y21.4802 Z5.0000
G0 X-8.0329 Y21.4802 Z2.2000
G1 X-8.0329 Y21.4802 Z-0.8000 F120.00
G1 X-8.0329 Y39.5229 Z-0.8000 F2400.00
G3 X-7.6597 Y39.1710 Z-0.8000 I0.9683 J0.6530 F2400.00
G3 X-6.4479 Y38.6719 Z-0.8000 I3.1020 J5.8106 F2400.00
G1 X-6.4479 Y22.3313 Z-0.8000 F2400.00
G3 X-4.8629 Y23.2274 Z-0.8000 I-3.0418 J7.2297 F2400.00
G1 X-4.8629 Y37.7757 Z-0.8000 F2400.00
G2 X-3.2779 Y36.3443 Z-0.8000 I-4.4948 J-6.5703 F2400.00
G1 X-3.2779 Y24.6588 Z-0.8000 F2400.00
G3 X-1.6929 Y27.2900 Z-0.8000 I-6.3249 J5.6031 F2400.00
G1 X-1.6929 Y33.7131 Z-0.8000 F2400.00
G1 X-1.4872 Y33.1551 Z-0.8000 F2400.00
G3 X-0.1079 Y32.1278 Z-0.8000 I1.4696 J0.5337 F2400.00
G1 X-0.1079 Y28.8753 Z-0.8000 F2400.00
G2 X1.4771 Y27.8683 Z-0.8000 I0.1219 J-1.5590 F2400.00
G1 X1.4771 Y33.1348 Z-0.8000 F2400.00
G2 X3.0621 Y36.0876 Z-0.8000 I8.5301 J-2.6771 F2400.00
G1 X3.0621 Y24.9156 Z-0.8000 F2400.00
G3 X4.6471 Y23.3790 Z-0.8000 I6.5236 J5.1436 F2400.00
G1 X4.6471 Y37.6241 Z-0.8000 F2400.00
G2 X6.2321 Y38.5704 Z-0.8000 I4.8376 J-6.3022 F2400.00
G1 X6.2321 Y22.4327 Z-0.8000 F2400.00
G3 X7.3465 Y21.9888 Z-0.8000 I3.1180 J6.2062 F2400.00
G2 X7.8171 Y21.7035 Z-0.8000 I-0.3984 J-1.1880 F2400.00
G1 X7.8171 Y39.2996 Z-0.8000 F2400.00
G0 X7.8171 Y39.2996 Z5.0000
G0 X12.5721 Y39.0550 Z5.0000
G0 X12.5721 Y39.0550 Z2.2000
G1 X12.5721 Y39.0550 Z-0.8000 F120.00
G1 X12.5721 Y21.9481 Z-0.8000 F2400.00
G3 X14.1571 Y22.6175 Z-0.8000 I-3.5071 J10.5159 F2400.00
G1 X14.1571 Y38.3857 Z-0.8000 F2400.00
G2 X15.7421 Y37.3081 Z-0.8000 I-3.8409 J-7.3539 F2400.00
G1 X15.7421 Y23.6951 Z-0.8000 F2400.00
G3 X17.3271 Y25.4404 Z-0.8000 I-5.1043 J6.2277 F2400.00
G1 X17.3271 Y35.5627 Z-0.8000 F2400.00
G2 X17.3271 Y25.4404 Z-0.8000 I-7.2800 J-5.0611 F2400.00
G0 X17.3271 Y25.4404 Z5.0000
G0 X7.8171 Y19.2996 Z5.0000
G0 X7.8171 Y19.2996 Z2.2000
G1 X7.8171 Y19.2996 Z-0.8000 F120.00
G1 X7.8171 Y1.8628 Z-0.8000 F2400.00
G2 X6.2321 Y2.4315 Z-0.8000 I1.4647 J6.5753 F2400.00
G1 X6.2321 Y18.5704 Z-0.8000 F2400.00
G3 X4.6471 Y17.6241 Z-0.8000 I3.2526 J-7.2485 F2400.00
G1 X4.6471 Y3.3814 Z-0.8000 F2400.00
G2 X3.0621 Y4.9165 Z-0.8000 I4.8271 J6.5698 F2400.00
G1 X3.0621 Y16.0876 Z-0.8000 F2400.00
G3 X1.4771 Y13.1348 Z-0.8000 I6.9451 J-5.6299 F2400.00
G1 X1.4771 Y7.8681 Z-0.8000 F2400.00
G3 X-0.1079 Y8.8753 Z-0.8000 I-1.4630 J-0.5515 F2400.00
G1 X-0.1079 Y12.1278 Z-0.8000 F2400.00
G2 X-1.4872 Y13.1551 Z-0.8000 I0.0903 J1.5609 F2400.00
G1 X-1.6929 Y13.7131 Z-0.8000 F2400.00
G1 X-1.6929 Y7.2890 Z-0.8000 F2400.00
G2 X-3.2779 Y4.6570 Z-0.8000 I-7.9567 J2.9983 F2400.00
G1 X-3.2779 Y16.3443 Z-0.8000 F2400.00
G3 X-4.8629 Y17.7757 Z-0.8000 I-6.0798 J-5.1389 F2400.00
G1 X-4.8629 Y3.2269 Z-0.8000 F2400.00
G2 X-6.4479 Y2.3270 Z-0.8000 I-4.8449 J6.6877 F2400.00
G1 X-6.4479 Y18.6719 Z-0.8000 F2400.00
G2 X-7.6597 Y19.1710 Z-0.8000 I1.8902 J6.3098 F2400.00
G2 X-8.0329 Y19.5229 Z-0.8000 I0.5951 J1.0049 F2400.00
G1 X-8.0329 Y1.8126 Z-0.8000 F2400.00
G0 X-8.0329 Y1.8126 Z5.0000
G0 X-17.5429 Y15.2408 Z5.0000
G0 X-17.5429 Y15.2408 Z2.2000
G1 X-17.5429 Y15.2408 Z-0.8000 F120.00
G3 X-17.5429 Y5.7663 Z-0.8000 I7.5008 J-4.7373 F2400.00
G1 X-17.5429 Y15.2408 Z-0.8000 F2400.00
G2 X-15.9579 Y17.1295 Z-0.8000 I7.2342 J-4.4617 F2400.00
G1 X-15.9579 Y3.8820 Z-0.8000 F2400.00
G3 X-14.3729 Y2.7402 Z-0.8000 I5.4208 J5.8538 F2400.00
G1 X-14.3729 Y18.2600 Z-0.8000 F2400.00
G2 X-12.7879 Y18.9649 Z-0.8000 I3.5819 J-5.9193 F2400.00
G1 X-12.7879 Y2.0437 Z-0.8000 F2400.00
G3 X-11.2029 Y1.6772 Z-0.8000 I2.3387 J6.5036 F2400.00
G1 X-11.2029 Y59.3259 Z-0.8000 F2400.00
G2 X-9.6179 Y59.4003 Z-0.8000 I1.0990 J-6.4917 F2400.00
G1 X-9.6179 Y1.6028 Z-0.8000 F2400.00
G3 X-8.0329 Y1.8126 Z-0.8000 I-0.0510 J6.4768 F2400.00
G1 X-8.0329 Y19.5229 Z-0.8000 F2400.00
G2 X-8.0329 Y21.4802 Z-0.8000 I1.1896 J0.9787 F2400.00
G1 X-8.0329 Y39.5229 Z-0.8000 F2400.00
G2 X-8.0329 Y41.4802 Z-0.8000 I1.1896 J0.9787 F2400.00
G1 X-8.0329 Y59.1905 Z-0.8000 F2400.00
G2 X-6.4479 Y58.6761 Z-0.8000 I-1.7787 J-8.1798 F2400.00
G1 X-6.4479 Y42.3313 Z-0.8000 F2400.00
G3 X-4.8629 Y43.2274 Z-0.8000 I-3.0419 J7.2297 F2400.00
G1 X-4.8629 Y57.7762 Z-0.8000 F2400.00
G2 X-3.2779 Y56.3462 Z-0.8000 I-4.5525 J-6.6391 F2400.00
G1 X-3.2779 Y44.6588 Z-0.8000 F2400.00
G3 X-1.6929 Y47.2900 Z-0.8000 I-6.3249 J5.6031 F2400.00
G1 X-1.6929 Y53.7142 Z-0.8000 F2400.00
G1 X-1.4876 Y53.1559 Z-0.8000 F2400.00
G3 X-0.1079 Y52.1278 Z-0.8000 I1.4699 J0.5328 F2400.00
G1 X-0.1079 Y48.8753 Z-0.8000 F2400.00
G2 X1.4771 Y47.8683 Z-0.8000 I0.1219 J-1.5590 F2400.00
G1 X1.4771 Y53.1350 Z-0.8000 F2400.00
G2 X3.0621 Y56.0866 Z-0.8000 I8.5187 J-2.6732 F2400.00
G1 X3.0621 Y44.9156 Z-0.8000 F2400.00
G3 X4.6471 Y43.3790 Z-0.8000 I6.5236 J5.1436 F2400.00
G1 X4.6471 Y57.6217 Z-0.8000 F2400.00
G2 X6.2321 Y58.5716 Z-0.8000 I4.7538 J-6.1347 F2400.00
G1 X6.2321 Y42.4327 Z-0.8000 F2400.00
G3 X7.3465 Y41.9888 Z-0.8000 I3.1180 J6.2062 F2400.00
G2 X7.8171 Y41.7035 Z-0.8000 I-0.3984 J-1.1880 F2400.00
G1 X7.8171 Y59.1403 Z-0.8000 F2400.00
G2 X9.4021 Y59.3950 Z-0.8000 I2.1415 J-8.2683 F2400.00
G1 X9.4021 Y1.6081 Z-0.8000 F2400.00
G3 X10.9871 Y1.6455 Z-0.8000 I0.5906 J8.5763 F2400.00
G1 X10.9871 Y59.3576 Z-0.8000 F2400.00
G2 X12.5721 Y59.0301 Z-0.8000 I-0.8256 J-7.9938 F2400.00
G1 X12.5721 Y41.9480 Z-0.8000 F2400.00
G3 X12.5721 Y39.0550 Z-0.8000 I0.6169 J-1.4465 F2400.00
G1 X12.5721 Y21.9481 Z-0.8000 F2400.00
G3 X12.5721 Y19.0551 Z-0.8000 I0.6170 J-1.4465 F2400.00
G1 X12.5721 Y1.9731 Z-0.8000 F2400.00
G3 X14.1571 Y2.6259 Z-0.8000 I-2.0815 J7.3039 F2400.00
G1 X14.1571 Y18.3844 Z-0.8000 F2400.00
G2 X15.7421 Y17.3089 Z-0.8000 I-3.7944 J-7.2977 F2400.00
G1 X15.7421 Y3.6840 Z-0.8000 F2400.00
G3 X17.3271 Y5.4313 Z-0.8000 I-5.6481 J6.7162 F2400.00
G1 X17.3271 Y15.5654 Z-0.8000 F2400.00
G2 X18.9121 Y10.3410 Z-0.8000 I-7.2490 J-5.0519 F2400.00
G0 X18.9121 Y10.3410 Z5.0000
G0 X18.9121 Y50.6621 Z5.0000
G0 X18.9121 Y50.6621 Z2.2000
G1 X18.9121 Y50.6621 Z-0.8000 F120.00
G3 X17.3271 Y55.5718 Z-0.8000 I-8.8678 J-0.1521 F2400.00
G1 X17.3271 Y45.4377 Z-0.8000 F2400.00
G2 X15.7421 Y43.6943 Z-0.8000 I-6.7503 J4.5447 F2400.00
G1 X15.7421 Y57.3191 Z-0.8000 F2400.00
G3 X14.1571 Y58.3772 Z-0.8000 I-4.9078 J-5.6354 F2400.00
G1 X14.1571 Y42.6188 Z-0.8000 F2400.00
G2 X12.5721 Y41.9480 Z-0.8000 I-5.0362 J9.6929 F2400.00
G1 X12.5721 Y59.0301 Z-0.8000 F2400.00
G1 X12.5721 Y59.0301 Z-1.2000 F120.00
G1 X12.5721 Y41.9480 Z-1.2000 F2400.00
G3 X14.1571 Y42.6188 Z-1.2000 I-3.4512 J10.3637 F2400.00
G1 X14.1571 Y58.3772 Z-1.2000 F2400.00
G2 X15.7421 Y57.3191 Z-1.2000 I-3.3228 J-6.6935 F2400.00
G1 X15.7421 Y43.6943 Z-1.2000 F2400.00
G3 X17.3271 Y45.4377 Z-1.2000 I-5.1653 J6.2881 F2400.00
G1 X17.3271 Y55.5718 Z-1.2000 F2400.00
G2 X18.9121 Y50.6621 Z-1.2000 I-7.2828 J-5.0618 F2400.00
G0 X18.9121 Y50.6621 Z5.0000
G0 X18.9126 Y50.6622 Z5.0000
G0 X18.9126 Y50.6622 Z1.8000
G1 X18.9126 Y50.6622 Z-1.2000 F120.00
G2 X12.6544 Y41.9891 Z-1.2000 I-8.9137 J-0.1625 F2400.00
G3 X12.6531 Y39.0145 Z-1.2000 I0.5472 J-1.4876 F2400.00
G2 X12.6531 Y21.9887 Z-1.2000 I-2.6578 J-8.5129 F2400.00
G3 X12.6544 Y19.0140 Z-1.2000 I0.5484 J-1.4871 F2400.00
G2 X18.6628 Y12.6011 Z-1.2000 I-2.6653 J-8.5183 F2400.00
G2 X1.4876 Y7.8472 Z-1.2000 I-8.6647 J-2.0984 F2400.00
G3 X-1.4876 Y7.8472 Z-1.2000 I-1.4876 J-0.5472 F2400.00
G2 X-10.1606 Y1.5895 Z-1.2000 I-8.5152 J2.6627 F2400.00
G2 X-12.6544 Y19.0140 Z-1.2000 I0.1621 J8.9139 F2400.00
G3 X-12.6531 Y21.9887 Z-1.2000 I-0.5472 J1.4876 F2400.00
G2 X-12.6531 Y39.0145 Z-1.2000 I2.6578 J8.5129 F2400.00
G3 X-12.6544 Y41.9891 Z-1.2000 I-0.5484 J1.4871 F2400.00
G2 X-18.6628 Y48.4020 Z-1.2000 I2.6653 J8.5183 F2400.00
G2 X-1.4876 Y53.1559 Z-1.2000 I8.6647 J2.0984 F2400.00
G3 X1.4876 Y53.1559 Z-1.2000 I1.4876 J0.5472 F2400.00
G2 X7.9005 Y59.1643 Z-1.2000 I8.5183 J-2.6653 F2400.00
G2 X18.9126 Y50.6622 Z-1.2000 I2.0984 J-8.6647 F2400.00
G0 X18.9126 Y50.6622 Z5.0000
G0 X12.5721 Y39.0550 Z5.0000
G0 X12.5721 Y39.0550 Z1.8000
G1 X12.5721 Y39.0550 Z-1.2000 F120.00
G1 X12.5721 Y21.9481 Z-1.2000 F2400.00
G3 X14.1571 Y22.6175 Z-1.2000 I-3.5071 J10.5159 F2400.00
G1 X14.1571 Y38.3857 Z-1.2000 F2400.00
G2 X15.7421 Y37.3081 Z-1.2000 I-3.8409 J-7.3539 F2400.00
G1 X15.7421 Y23.6951 Z-1.2000 F2400.00
G3 X17.3271 Y25.4404 Z-1.2000 I-5.1043 J6.2277 F2400.00
G1 X17.3271 Y35.5627 Z-1.2000 F2400.00
G2 X17.3271 Y25.4404 Z-1.2000 I-7.2800 J-5.0611 F2400.00
G0 X17.3271 Y25.4404 Z5.0000
G0 X8.2334 Y21.1747 Z5.0000
G0 X8.2334 Y21.1747 Z1.8000
G1 X8.2334 Y21.1747 Z-1.2000 F120.00
G3 X7.3465 Y21.9888 Z-1.2000 I-1.4350 J-0.6731 F2400.00
G2 X1.4872 Y27.8481 Z-1.2000 I2.6736 J8.5329 F2400.00
G3 X-1.4872 Y27.8481 Z-1.2000 I-1.4872 J-0.5481 F2400.00
G2 X-7.3465 Y21.9888 Z-1.2000 I-8.5329 J2.6736 F2400.00
G3 X-7.3465 Y19.0143 Z-1.2000 I0.5481 J-1.4872 F2400.00
G2 X-1.4872 Y13.1551 Z-1.2000 I-2.6736 J-8.5329 F2400.00
G3 X0.1751 Y12.1278 Z-1.2000 I1.4872 J0.5481 F2400.00
G3 X1.4872 Y13.1551 Z-1.2000 I-0.1751 J1.5753 F2400.00
G2 X7.3465 Y19.0143 Z-1.2000 I8.5329 J-2.6736 F2400.00
G3 X8.2334 Y21.1747 Z-1.2000 I-0.5481 J1.4872 F2400.00
G0 X8.2334 Y21.1747 Z5.0000
G0 X7.8171 Y19.2996 Z5.0000
G0 X7.8171 Y19.2996 Z1.8000
G1 X7.8171 Y19.2996 Z-1.2000 F120.00
G1 X7.8171 Y1.8628 Z-1.2000 F2400.00
G2 X6.2321 Y2.4315 Z-1.2000 I1.4647 J6.5753 F2400.00
G1 X6.2321 Y18.5704 Z-1.2000 F2400.00
G3 X4.6471 Y17.6241 Z-1.2000 I3.2526 J-7.2485 F2400.00
G1 X4.6471 Y3.3814 Z-1.2000 F2400.00
G2 X3.0621 Y4.9165 Z-1.2000 I4.8271 J6.5698 F2400.00
G1 X3.0621 Y16.0876 Z-1.2000 F2400.00
G3 X1.4771 Y13.1348 Z-1.2000 I6.9451 J-5.6299 F2400.00
G1 X1.4771 Y7.8681 Z-1.2000 F2400.00
G3 X-0.1079 Y8.8753 Z-1.2000 I-1.4630 J-0.5515 F2400.00
G1 X-0.1079 Y12.1278 Z-1.2000 F2400.00
G2 X-1.4872 Y13.1551 Z-1.2000 I0.0903 J1.5609 F2400.00
G1 X-1.6929 Y13.7131 Z-1.2000 F2400.00
G1 X-1.6929 Y7.2890 Z-1.2000 F2400.00
G2 X-3.2779 Y4.6570 Z-1.2000 I-7.9567 J2.9983 F2400.00
G1 X-3.2779 Y16.3443 Z-1.2000 F2400.00
G3 X-4.8629 Y17.7757 Z-1.2000 I-6.0798 J-5.1389 F2400.00
G1 X-4.8629 Y3.2269 Z-1.2000 F2400.00
G2 X-6.4479 Y2.3270 Z-1.2000 I-4.8449 J6.6877 F2400.00
G1 X-6.4479 Y18.6719 Z-1.2000 F2400.00
G2 X-7.6597 Y19.1710 Z-1.2000 I1.8902 J6.3098 F2400.00
G2 X-8.0329 Y19.5229 Z-1.2000 I0.5951 J1.0049 F2400.00
G1 X-8.0329 Y1.8126 Z-1.2000 F2400.00
G0 X-8.0329 Y1.8126 Z5.0000
G0 X-17.5429 Y15.2408 Z5.0000
G0 X-17.5429 Y15.2408 Z1.8000
G1 X-17.5429 Y15.2408 Z-1.2000 F120.00
G3 X-17.5429 Y5.7663 Z-1.2000 I7.5008 J-4.7373 F2400.00
G1 X-17.5429 Y15.2408 Z-1.2000 F2400.00
G2 X-15.9579 Y17.1295 Z-1.2000 I7.2342 J-4.4617 F2400.00
G1 X-15.9579 Y3.8820 Z-1.2000 F2400.00
G3 X-14.3729 Y2.7402 Z-1.2000 I5.4208 J5.8538 F2400.00
G1 X-14.3729 Y18.2600 Z-1.2000 F2400.00
G2 X-12.7879 Y18.9649 Z-1.2000 I3.5819 J-5.9193 F2400.00
G1 X-12.7879 Y2.0437 Z-1.2000 F2400.00
G3 X-11.2029 Y1.6772 Z-1.2000 I2.3387 J6.5036 F2400.00
G1 X-11.2029 Y59.3259 Z-1.2000 F2400.00
G2 X-9.6179 Y59.4003 Z-1.2000 I1.0990 J-6.4917 F2400.00
G1 X-9.6179 Y1.6028 Z-1.2000 F2400.00
G3 X-8.0329 Y1.8126 Z-1.2000 I-0.0510 J6.4768 F2400.00
G1 X-8.0329 Y19.5229 Z-1.2000 F2400.00
G2 X-8.0329 Y21.4802 Z-1.2000 I1.1896 J0.9787 F2400.00
G1 X-8.0329 Y39.5229 Z-1.2000 F2400.00
G2 X-8.0329 Y41.4802 Z-1.2000 I1.1896 J0.9787 F2400.00
G1 X-8.0329 Y59.1905 Z-1.2000 F2400.00
G2 X-6.4479 Y58.6761 Z-1.2000 I-1.7787 J-8.1798 F2400.00
G1 X-6.4479 Y42.3313 Z-1.2000 F2400.00
G3 X-4.8629 Y43.2274 Z-1.2000 I-3.0419 J7.2297 F2400.00
G1 X-4.8629 Y57.7762 Z-1.2000 F2400.00
G2 X-3.2779 Y56.3462 Z-1.2000 I-4.5525 J-6.6391 F2400.00
G1 X-3.2779 Y44.6588 Z-1.2000 F2400.00
G3 X-1.6929 Y47.2900 Z-1.2000 I-6.3249 J5.6031 F2400.00
G1 X-1.6929 Y53.7142 Z-1.2000 F2400.00
G1 X-1.4876 Y53.1559 Z-1.2000 F2400.00
G3 X-0.1079 Y52.1278 Z-1.2000 I1.4699 J0.5328 F2400.00
G1 X-0.1079 Y48.8753 Z-1.2000 F2400.00
G2 X1.4771 Y47.8683 Z-1.2000 I0.1219 J-1.5590 F2400.00
G1 X1.4771 Y53.1350 Z-1.2000 F2400.00
G2 X3.0621 Y56.0866 Z-1.2000 I8.5187 J-2.6732 F2400.00
G1 X3.0621 Y44.9156 Z-1.2000 F2400.00
G3 X4.6471 Y43.3790 Z-1.2000 I6.5236 J5.1436 F2400.00
G1 X4.6471 Y57.6217 Z-1.2000 F2400.00
G2 X6.2321 Y58.5716 Z-1.2000 I4.7538 J-6.1347 F2400.00
G1 X6.2321 Y42.4327 Z-1.2000 F2400.00
G3 X7.3465 Y41.9888 Z-1.2000 I3.1180 J6.2062 F2400.00
G2 X7.8171 Y41.7035 Z-1.2000 I-0.3984 J-1.1880 F2400.00
G1 X7.8171 Y59.1403 Z-1.2000 F2400.00
G2 X9.4021 Y59.3950 Z-1.2000 I2.1415 J-8.2683 F2400.00
G1 X9.4021 Y1.6081 Z-1.2000 F2400.00
G3 X10.9871 Y1.6455 Z-1.2000 I0.5906 J8.5763 F2400.00
G1 X10.9871 Y59.3576 Z-1.2000 F2400.00
G2 X12.5721 Y59.0301 Z-1.2000 I-0.8256 J-7.9938 F2400.00
G1 X12.5721 Y41.9480 Z-1.2000 F2400.00
G3 X12.5721 Y39.0550 Z-1.2000 I0.6169 J-1.4465 F2400.00
G1 X12.5721 Y21.9481 Z-1.2000 F2400.00
G3 X12.5721 Y19.0551 Z-1.2000 I0.6170 J-1.4465 F2400.00
G1 X12.5721 Y1.9731 Z-1.2000 F2400.00
G3 X14.1571 Y2.6259 Z-1.2000 I-2.0815 J7.3039 F2400.00
G1 X14.1571 Y18.3844 Z-1.2000 F2400.00
G2 X15.7421 Y17.3089 Z-1.2000 I-3.7944 J-7.2977 F2400.00
G1 X15.7421 Y3.6840 Z-1.2000 F2400.00
G3 X17.3271 Y5.4313 Z-1.2000 I-5.6481 J6.7162 F2400.00
G1 X17.3271 Y15.5654 Z-1.2000 F2400.00
G2 X18.9121 Y10.3410 Z-1.2000 I-7.2490 J-5.0519 F2400.00
G0 X18.9121 Y10.3410 Z5.0000
G0 X0.9973 Y32.4712 Z5.0000
G0 X0.9973 Y32.4712 Z1.8000
G1 X0.9973 Y32.4712 Z-1.2000 F120.00
G3 X1.4872 Y33.1551 Z-1.2000 I-0.9973 J1.2319 F2400.00
G2 X7.3465 Y39.0143 Z-1.2000 I8.5329 J-2.6736 F2400.00
G3 X7.3465 Y41.9888 Z-1.2000 I-0.5481 J1.4872 F2400.00
G2 X1.4872 Y47.8481 Z-1.2000 I2.6736 J8.5329 F2400.00
G3 X-1.4872 Y47.8481 Z-1.2000 I-1.4872 J-0.5481 F2400.00
G2 X-7.3465 Y41.9888 Z-1.2000 I-8.5329 J2.6736 F2400.00
G3 X-7.3465 Y39.0143 Z-1.2000 I0.5481 J-1.4872 F2400.00
G2 X-1.4872 Y33.1551 Z-1.2000 I-2.6736 J-8.5329 F2400.00
G3 X0.1751 Y32.1278 Z-1.2000 I1.4872 J0.5481 F2400.00
G3 X0.9973 Y32.4712 Z-1.2000 I-0.1751 J1.5753 F2400.00
G0 X0.9973 Y32.4712 Z5.0000
G0 X7.8171 Y39.2996 Z5.0000
G0 X7.8171 Y39.2996 Z1.8000
G1 X7.8171 Y39.2996 Z-1.2000 F120.00
G1 X7.8171 Y21.7035 Z-1.2000 F2400.00
G3 X7.3465 Y21.9888 Z-1.2000 I-0.8690 J-0.9027 F2400.00
G2 X6.2321 Y22.4327 Z-1.2000 I2.0036 J6.6502 F2400.00
G1 X6.2321 Y38.5704 Z-1.2000 F2400.00
G3 X4.6471 Y37.6241 Z-1.2000 I3.2526 J-7.2485 F2400.00
G1 X4.6471 Y23.3790 Z-1.2000 F2400.00
G2 X3.0621 Y24.9156 Z-1.2000 I4.9386 J6.6802 F2400.00
G1 X3.0621 Y36.0876 Z-1.2000 F2400.00
G3 X1.4771 Y33.1348 Z-1.2000 I6.9451 J-5.6299 F2400.00
G1 X1.4771 Y27.8683 Z-1.2000 F2400.00
G3 X-0.1079 Y28.8753 Z-1.2000 I-1.4631 J-0.5519 F2400.00
G1 X-0.1079 Y32.1278 Z-1.2000 F2400.00
G2 X-1.4872 Y33.1551 Z-1.2000 I0.0903 J1.5609 F2400.00
G1 X-1.6929 Y33.7131 Z-1.2000 F2400.00
G1 X-1.6929 Y27.2900 Z-1.2000 F2400.00
G2 X-3.2779 Y24.6588 Z-1.2000 I-7.9099 J2.9719 F2400.00
G1 X-3.2779 Y36.3443 Z-1.2000 F2400.00
G3 X-4.8629 Y37.7757 Z-1.2000 I-6.0798 J-5.1389 F2400.00
G1 X-4.8629 Y23.2274 Z-1.2000 F2400.00
G2 X-6.4479 Y22.3313 Z-1.2000 I-4.6268 J6.3336 F2400.00
G1 X-6.4479 Y38.6719 Z-1.2000 F2400.00
G2 X-7.6597 Y39.1710 Z-1.2000 I1.8902 J6.3097 F2400.00
G2 X-8.0329 Y39.5229 Z-1.2000 I0.5951 J1.0049 F2400.00
G1 X-8.0329 Y21.4802 Z-1.2000 F2400.00
G0 X-8.0329 Y21.4802 Z5.0000
G0 X-12.7879 Y22.0384 Z5.0000
G0 X-12.7879 Y22.0384 Z1.8000
G1 X-12.7879 Y22.0384 Z-1.2000 F120.00
G1 X-12.7879 Y38.9648 Z-1.2000 F2400.00
G3 X-14.3729 Y38.2600 Z-1.2000 I1.9402 J-6.4983 F2400.00
G1 X-14.3729 Y22.7431 Z-1.2000 F2400.00
G2 X-15.9579 Y23.8772 Z-1.2000 I3.8494 J7.0542 F2400.00
G1 X-15.9579 Y37.1259 Z-1.2000 F2400.00
G3 X-17.5429 Y35.2483 Z-1.2000 I5.7556 J-6.4665 F2400.00
G3 X-17.5429 Y25.7548 Z-1.2000 I7.5342 J-4.7468 F2400.00
G1 X-17.5429 Y35.2483 Z-1.2000 F2400.00
G0 X-17.5429 Y35.2483 Z5.0000
G0 X-12.7879 Y42.0382 Z5.0000
G0 X-12.7879 Y42.0382 Z1.8000
G1 X-12.7879 Y42.0382 Z-1.2000 F120.00
G1 X-12.7879 Y58.9594 Z-1.2000 F2400.00
G3 X-14.3729 Y58.2630 Z-1.2000 I2.2817 J-7.3446 F2400.00
G1 X-14.3729 Y42.7432 Z-1.2000 F2400.00
G2 X-15.9579 Y43.8736 Z-1.2000 I3.9873 J7.2669 F2400.00
G1 X-15.9579 Y57.1211 Z-1.2000 F2400.00
G3 X-17.5429 Y55.2368 Z-1.2000 I5.4024 J-6.1531 F2400.00
G3 X-17.5429 Y45.7623 Z-1.2000 I7.5008 J-4.7373 F2400.00
G1 X-17.5429 Y55.2368 Z-1.2000 F2400.00
G0 Z5.0000
(finish operation: Pocket_3D)
(begin postamble)
M5
G17 G90
; M2
